Origami/16x16/apps/VVVVVV.svg

<svg width="16" height="16" version="1" xmlns="http://www.w3.org/2000/svg">
 <rect transform="matrix(0,-1,-1,0,0,0)" x="-16" y="-16" width="16" height="16" rx=".8" ry=".8" style="fill:#407494"/>
 <path d="m12 2v1h1v8h-1v1h-2v1h2v1h-8v-1h2v-1h-2v-1h-1v-8h1v-1z" style="fill:#91c2d0"/>
 <path d="m6 5v2h-2v-2z" style="fill:#404040"/>
 <path d="m10 9v1h-1v1h-4v-1h-1v-1z" style="fill:#404040"/>
 <path d="m10 5v2h-2v-2z" style="fill:#404040"/>
</svg>

<svg xmlns="http://www.w3.org/2000/svg" width="16" height="16" version="1">
 <rect style="fill:#407494" width="16" height="16" x="-16" y="-16" rx=".8" ry=".8" transform="matrix(0,-1,-1,0,0,0)"/>
 <path style="fill:#91c2d0" d="m 12,2 v 1 h 1 v 8 h -1 v 1 h -2 v 1 h 2 v 1 H 4 V 13 H 6 V 12 H 4 V 11 H 3 V 3 H 4 V 2 Z"/>
 <path style="fill:#404040" d="M 6,5 V 7 H 4 V 5 Z"/>
 <path style="fill:#404040" d="m 10,9 v 1 H 9 v 1 H 5 V 10 H 4 V 9 Z"/>
 <path style="fill:#404040" d="M 10,5 V 7 H 8 V 5 Z"/>
</svg>
